X: 1
T: Chilly Bird
C: Beckett
R: reel
Z: 2019 John Chambers <jc:trillian.mit.edu>
S: Printed MS of unknown origin
N: Is there only one 8-bar part?
M: 2/4
L: 1/16
K: Ador
|:\
A>Bcd e2e2 | a3g e4 | A>Bcd ede2 | dedc B4 |
A>Bcd e2e2 | a3g e4 | a>bag edcB | cBAG A4 :|
